X: 127
T: Lady Georgina Campbell
T: Reel, G
L: 1/16
M: C|
K: G
|: G2E2D2E2 G4G2e2| d2d2B2B2 d2B2A2B2| G2E2D2E2 G4G2e2| [1 d2B2d2B2 A4B2A2:| [2 d2B2d2B2 A4e2f2|] 
|: g2e2d2e2 g4g2b2| a2g2a2b2 a2g2e2a2| [1 g2e2d2e2 g4g2b2| a2g2a2b2 g4g2a2:| [2 g2e2d2e2 g2a2b2a2| g2e2g2B2 A4B2A2|] 
D: Donald Angus Beaton, A Musical Legacy, DAB4-1985
D: Natalie MacMaster, My Roots Are Showing
D: Natalie MacMaster, Fit As a Fiddle
D: Theresa, Donald and Marie MacLellan, The MacLellan Trio, Breton Books and Music
B: Skye Collection
